X:1
T:Tie Me Kangaroo Down
M:4/4
L:1/4
K:C
 e e/2 e d/2 c| F2 A2| G B/2 d f/2 a| g2 z2| e e/2 e d/2 c| F2 A2|\
 G B/2 f e/2 d| c2 z2|
